X:1
T: The Lass of Ballantrae
C:
R:Reel
Q: 232
K:G
M:4/4
L:1/8
|:e|dG Bd eg fg|dG BG AE Ee|dG Bd eg fa|bg df g3e|
dG Bd eg fg|dG BG AE Ee|dG Bd eg fa|bg df g3:|
|:d|gd gb ad fa|g1/4a1/4b3/2 ag fd df|gd gb ad ac'|bg df g3d|
gd gb ad fa|g1/4a1/4b3/2 ag fd dg|((3edc) ge dG Bd|eg fa g3:|
